X:1
T:Title
%%score { 1 | 2 }
L:1/8
M:3/4
K:G
V:1 treble nm="Grand Piano"
V:2 treble 
V:1
 z2 z2[Q:1/4=100] GA | B2 B2 B2 | [FA]4 [FB][FA] | G2 G2 G2 | [^DF]4 [EG][DF] | E2 E2 [EG][CE] | %6
 [B,D]2 [DG]2 [DB]2 | A6- | A4 Bc | d2 d2 d2 | B4 [CFA][DFB] | [B,EG]2 [B,EG]2 [A,^DF]2 | %12
 [G,E]4 [G,EG][G,CE] | [G,B,D]2 [B,DG]2 [DGB]2 | [CEA]2 [B,DG]2 [CDA]2 | [B,DG]6- | %16
[M:2/4] [B,DG]4 |] %17
V:2
 z2 z2 [G,B,D][G,CD] | [G,DG]2 [G,DG]2 [G,DG]2 | [D,C]4 [D,D][D,C] | [E,B,E]2 [E,B,E]2 [E,B,E]2 | %4
 [B,,B,]4 [B,,B,][B,,A,] | [C,G,]2 [C,G,]2 [C,G,]2 | [G,,G,]2 [B,,G,]2 [G,,G,]2 | [D,F,D]6- | %8
 [D,F,D]4[K:treble] [G,D][G,A,D] | [G,B,D]2 [G,B,D]2 [G,B,D]2 | [G,DG]4[K:bass] D,D, | %11
 E,2 E,2 B,,2 | C,4 C,C, | G,,2 G,,2 G,,2 | C,2 D,2 D,2 | G,,6- |[M:2/4] G,,4 |] %17

